**kern	**dynam
*clefC3	*
*k[b-e-a-]	*
*E-:	*
*M4/4	*
*met(c)	*
=1	=1
1r	.
=2	=2
2r	.
[2e-	p
=3	=3
2.e-]	.
4f	.
=4	=4
2B-	.
2r;	.
=5	=5
(>16e-'LL	.
16e-'	.
16e-'	f
16e-'JJ)	.
16e-LL	.
16e-	.
16e-	.
16e-JJ	.
16fLL	.
16f	.
16f	.
16dJJ	.
16e-LL	.
16e-	.
16e-	.
16e-JJ	.
=6	=6
16e-LL	.
16e-	.
16e-	.
16e-JJ	.
16fLL	.
16f	.
16f	.
16fJJ	.
4f	.
4e-	.
=7	=7
!!linebreak:original
2B-	.
2e-	.
=8	=8
2g	.
2f	.
=9	=9
4e-	.
16e-LL	.
16e-	.
16e-	.
16anJJ	.
4b-	.
4B-	.
=10	=10
2f	.
2g	.
=11	=11
4g	.
16gLL	.
16g	.
16g	.
16e-JJ	.
2f	.
=12	=12
16fLL	.
16f	.
16f	.
16fJJ	.
16fLL	.
16f	.
16f	.
16dJJ	.
16e-LL	.
16e-	.
16e-	.
16e-JJ	.
16e-LL	.
16e-	.
16d	.
16cJJ	.
=13	=13
!!linebreak:original
2d	.
4g	.
4en	.
=14	=14
4f	.
4F	<
2An	.
=15	=15
4B-	[
4f	f
4g	.
4c	.
=16	=16
4B-	.
4f	.
4B-	p
16B-LL	.
16B-	.
16B-	.
16e-JJ	.
=17	=17
16dLL	.
16B-	.
16B-	.
16B-JJ	.
16B-LL	.
16B-	.
16B-	.
16e-JJ	.
16dLL	<
16B-	.
16B-	.
16B-JJ	.
4F	.
=18	=18
16B-LL	[
16d	p
16d	.
16dJJ	.
4d	.
2c	.
=19	=19
!!linebreak:original
2B-	.
16cLL	.
16c	.
16c	.
16AnJJ	.
16B-LL	.
16B-	.
16B-	.
16B-JJ	.
=20	=20
2d	<
4e-	>
4E-	.
=21	=21
2g	]
2g	.
=22	=22
2g	.
2e-	.
=23	=23
2e-	.
2e-	.
=24	=24
4f	.
4B-	.
16B-LL	.
16d	.
16d	.
16dJJ	.
4d	.
=25	=25
2g	p
2f	f
=26	=26
2e-	.
2d	.
=27	=27
2c	.
2B-	.
=28	=28
!!linebreak:original
16FLL	.
16F	.
16f	.
16fJJ	.
16dLL	.
16d	.
16e-	.
16e-JJ	.
16B-LL	.
16d	.
16d	.
16dJJ	.
16fLL	.
16f	.
16f	.
16fJJ	.
=29	=29
2e-	.
2e-	.
=30	=30
2e-	.
2e-	.
=31	=31
2.e-	.
4d	.
=32	=32
16e-LL	.
16B-	.
16B-	.
16B-JJ	.
4B-	.
4f	.
4c	.
=33	=33
2B-	.
2F	<
=34	=34
4e-	f
4B-	.
4c	.
4F	.
=35	=35
!!linebreak:original
4E-	.
4B-	.
4E-	.
16e-'LL	p
16e-'	.
(16e-	.
16a-JJ)	.
=36	=36
(16gLL	.
16e-)	.
16e-'	.
16e-'JJ	.
16e-'LL	.
16e-'	.
(16e-	.
16a-JJ)	.
(16gLL	<
16e-)	.
16e-'	.
16e-'JJ	[
4B-	>
=37	=37
4e-	]
4r	.
2r	.
=38	=38
2r	.
[2e-	p
=39	=39
2.e-]	.
4f	.
=40	=40
4e-	.
4r	.
2r	.
=41	=41
2B-	pp
(8E-L	.
8G	.
8A-	.
8FJ)	.
=42	=42
8E-	.
8r	.
8E-	.
8r	.
4E-	.
4r	.
==	==
*-	*-
!!!RDF**kern: > = above
